X: 12
T:Dunphy's Hornpipe
M:C|
L:1/16
C:from G. Cotter
R:Hornpipe
K:G
(3 DEF|GDBD G2 (3 gag|feed ecAG|FADG FGAc|BGAF GFED|
GDBD G2 (3gag|feed ecAG|FAdB cADF|AGGF G2:|
|:Bc|d2Bd gdBd|g2af gdBd|g2fg ed^cd|edd^c d2 ef|
gedc Bd G2|ecAG F2 DF|GBdB cADF|AGGF G2:|
